X:1
T:CANADEE-I-O
M:6/8
L:1/8
K:G
 D| G2 G G2 B| d3 d2 B| A2 G E2 D| E3 z2 d| e2 f g2 f| e3 d2 e| d2 e c2 A|\
 B3 z2 d| e2 f g2 f| e2 d d2 e| d2 e d2 A| B3 z2 B| B2 AB-d d| e2 eB-A B|\
 A2 G E2 D| E3 z2||
